X:166
T:Tuamgraney Castle                                                                                 
R:hornpipe                                                                                          
S:Siobhan Kelly                                                                                     
M:4/4                                                                                               
L:1/8                                                                                               
Q:50                                                                                                
K:G                                                                                                 
cB|AGAB AGEG|AGAB cBcd|(3efg fa g2 ed |1 B2 G2 G2 cB:|2 c2 A2 A2 (3efg||                            
agab ageg | agab a2 ge | dega g2 ed |1 B2 G2 G2 (3efg:|2 c2 A2 A2 (3efg||                           
agab ageg | agab a2 ge | dega g2 ed|B2 G2 G2 cB|                                                    
AGAB AGEG|AGAB cBcd|(3efg fa g2 ed | c2 A2 A2 cB|>|
